static/fa/svgs/solid/chess-queen.svg

<svg xmlns="http://www.w3.org/2000/svg" viewBox="0 0 512 512"><!--! Font Awesome Free 6.1.1 by @fontawesome - https://fontawesome.com License - https://fontawesome.com/license/free (Icons: CC BY 4.0, Fonts: SIL OFL 1.1, Code: MIT License) Copyright 2022 Fonticons, Inc.--><path d="M256 112c30.88 0 56-25.12 56-56S286.9 0 256 0s-56.9 25.12-56.9 56 26 56 56.9 56zm143.1 336h-288c-26.51 0-48 21.49-48 47.1.88 9.7 8.05 16.9 16.88 16.9h352c8.837 0 16-7.163 16-16-.88-26.5-21.48-48-48.88-48zm112-250.6c0-5.178-2.509-10.2-7.096-13.26L476.4 168.2c-2.684-1.789-5.602-2.62-8.497-2.62-17.22 0-17.39 26.37-51.92 26.37-29.35 0-47.97-25.38-47.97-50.63C367.1 134 361.1 128 354.6 128h-38.75c-6 0-11.63 4-12.88 9.875C298.2 160.1 278.7 176 255.1 176c-22.75 0-42.25-15.88-47-38.12-.4-5.88-5.9-9.88-12-9.88h-38.75c-8.25 0-14.25 6-14.25 13.4 0 18.45-13.73 50.62-47.95 50.62-34.58 0-34.87-26.39-51.87-26.39-2.909 0-5.805.833-8.432 2.645l-28.63 16C2.509 187.2 0 192.3 0 197.4c0 2.5.558 4.9 1.72 7.2L104.2 416h303.5l102.5-211.4c1.2-2.3.9-4.8.9-7.2z"/></svg>

<svg xmlns="http://www.w3.org/2000/svg" viewBox="0 0 512 512"><!--! Font Awesome Free 6.1.1 by @fontawesome - https://fontawesome.com License - https://fontawesome.com/license/free (Icons: CC BY 4.0, Fonts: SIL OFL 1.1, Code: MIT License) Copyright 2022 Fonticons, Inc. --><path d="M256 112c30.88 0 56-25.12 56-56S286.9 0 256 0S199.1 25.12 199.1 56S225.1 112 256 112zM399.1 448H111.1c-26.51 0-48 21.49-48 47.1C63.98 504.8 71.15 512 79.98 512h352c8.837 0 16-7.163 16-16C447.1 469.5 426.5 448 399.1 448zM511.1 197.4c0-5.178-2.509-10.2-7.096-13.26L476.4 168.2c-2.684-1.789-5.602-2.62-8.497-2.62c-17.22 0-17.39 26.37-51.92 26.37c-29.35 0-47.97-25.38-47.97-50.63C367.1 134 361.1 128 354.6 128h-38.75c-6 0-11.63 4-12.88 9.875C298.2 160.1 278.7 176 255.1 176c-22.75 0-42.25-15.88-47-38.12C207.7 132 202.2 128 196.1 128h-38.75C149.1 128 143.1 134 143.1 141.4c0 18.45-13.73 50.62-47.95 50.62c-34.58 0-34.87-26.39-51.87-26.39c-2.909 0-5.805 .8334-8.432 2.645l-28.63 16C2.509 187.2 0 192.3 0 197.4C0 199.9 .5585 202.3 1.72 204.6L104.2 416h303.5l102.5-211.4C511.4 202.3 511.1 199.8 511.1 197.4z"/></svg>
